packages/kaspersky-hexa-ui-icons/src/iconsSVGs/16/StatusBulbSolid.svg

<svg width="16" height="16" viewBox="0 0 16 16" fill="none" xmlns="http://www.w3.org/2000/svg">
<path fill-rule="evenodd" clip-rule="evenodd" d="M8 15C11.866 15 15 11.866 15 8C15 4.13401 11.866 1 8 1C4.13401 1 1 4.13401 1 8C1 11.866 4.13401 15 8 15ZM10.8731 6.5634C10.8731 7.62689 10.2953 8.55543 9.43652 9.05222V9.79576C9.43652 9.99411 9.27573 10.1549 9.07737 10.1549H6.92247C6.72411 10.1549 6.56331 9.99411 6.56331 9.79576V9.05222C5.70451 8.55543 5.12671 7.62689 5.12671 6.5634C5.12671 4.97657 6.41309 3.69019 7.99992 3.69019C9.58675 3.69019 10.8731 4.97657 10.8731 6.5634ZM6.92247 10.8732C6.72411 10.8732 6.56331 11.034 6.56331 11.2324V11.9507C6.56331 12.149 6.72411 12.3098 6.92247 12.3098H9.07737C9.27573 12.3098 9.43652 12.149 9.43652 11.9507V11.2324C9.43652 11.034 9.27573 10.8732 9.07737 10.8732H6.92247Z" fill="black"/>
</svg>

<svg xmlns="http://www.w3.org/2000/svg" width="16" height="16" fill="none" viewBox="0 0 16 16"><path fill="#000" fill-rule="evenodd" d="M8 15c3.866 0 7-3.134 7-7s-3.134-7-7-7-7 3.134-7 7 3.134 7 7 7m2.8731-8.4366c0 1.0635-.5778 1.992-1.4366 2.4888v.7436a.359.359 0 0 1-.3591.3591h-2.155a.359.359 0 0 1-.359-.3591v-.7436c-.8589-.4968-1.4367-1.4253-1.4367-2.4888 0-1.5868 1.2864-2.8732 2.8732-2.8732s2.8732 1.2864 2.8732 2.8732m-3.9506 4.3098a.359.359 0 0 0-.3592.3592v.7183c0 .1983.1608.3591.3592.3591h2.1549a.359.359 0 0 0 .3591-.3591v-.7183a.359.359 0 0 0-.3591-.3592z"/></svg>
